X:326
T: MIT FROHEM MUTH UND HEITREM SINN
N: F0559
O: Europa, Mitteleuropa, Deutschland
R: Soldaten -, Kriegs - Lied
M: 3/4
L: 1/16
K: F
A4 | A3AA2A2B2A2 | G4z4
B4 | B3BB2B2c2B2 | A4z4
c4 | d3dd2c2d2c2 | d2
c2B2A2G2F2 | c3CC2c2c2c2 | c4A2
A2A2A2 | A4F2e2f4 | f4z4

